X:39
T:Caledoneon Hunt. LIT.039, The
M:2/2
Q:1/4=140
L:1/8
B:Wm. Litten MS, 1802
Z:Village Music Project 2017 Anne Wride
K:D
A | F>A dA B<d A<F | G>B A<G BE EG | FA dA Bd AF | GB AG FD DG |
F>A dA B<d AF | G>B AF BE EG | FA dA ((3Bcd) AG | FA Dg fd d :|
|:f | d/e/f/g/ a<f bgaf | d/e/f/g/ a<f ge ef | d/e/f/g/ a<f bg af | Ad dg fd df |
d/e/f/g/ a<f bg af | d/e/f/g/ a<f ge eg | fd ef dB AF | AB de fd d :|

